images/产品详情_1/u6082_seg3.svg

<svg xmlns="http://www.w3.org/2000/svg" width="20" height="20" preserveAspectRatio="xMinYMid meet" viewBox="995 2279 20 18"><path fill="none" stroke="#1890ff" stroke-width="2" d="M775 2086h112a5 5 0 0 1 5 5v192a5 5 0 0 0 5 5h107"/><path fill="#1890ff" d="m1003 2295.6 7-7.6-7-7.6zm2-4.8v-5.6l2 2.8z"/></svg>

﻿<?xml version="1.0" encoding="utf-8"?>
<svg version="1.1" xmlns:xlink="http://www.w3.org/1999/xlink" width="20px" height="20px" preserveAspectRatio="xMinYMid meet" viewBox="995 2279  20 18" xmlns="http://www.w3.org/2000/svg">
  <path d="M 775 2086  L 887 2086  A 5 5 0 0 1 892 2091 L 892 2283  A 5 5 0 0 0 897 2288 L 1004 2288  " stroke-width="2" stroke="#1890ff" fill="none" />
  <path d="M 1003 2295.6  L 1010 2288  L 1003 2280.4  L 1003 2295.6  Z M 1005 2290.8  L 1005 2285.2  L 1007 2288  L 1005 2290.8  Z " fill-rule="nonzero" fill="#1890ff" stroke="none" />
</svg>
